icons/glyphs/glyph-ms-path.svg

<?xml version="1.0" encoding="UTF-8" standalone="no"?><svg height="16" viewBox="0 0 4.2333333 4.2333333" width="16" xmlns="http://www.w3.org/2000/svg"><sodipodi:namedview/><metadata><rdf:RDF><cc:Work><dc:format>image/svg+xml</dc:format><dc:type/><dc:title/></cc:Work></rdf:RDF></metadata><path d="m8.5410156-.01757813c-2.8521789.50797305-5.70669.99358845-8.55859373 1.49218753 0 4.3386588-.0019241 8.6790856 0 13.0195316 2.83717003.496813 5.67825773.971072 8.50976563 1.488281h1.1621094v-2.445313l.8671871 1.169922 1.779297-2.402343h-.947265v-5.8750005h1.464843v-1.6972656h-3.1640621v-4.75000003zm5.6796874 1.28710933-1.779297 2.4023438h.976563v5.1777344h-1.464844v1.6972656h1.464844 1.699219v-1.6972656-5.1777344h.882812zm-9.6464842 3.4079984-.0839844 6.3129094c-.3605896-.03169-.7212686-.06183-1.0820313-.09147-.01629-1.9450798-.019691-4.1919407.00195-6.1368792.4935337.023667.6394278-.073393 1.1640626-.084563z" fill="#d0d0d0" stroke-width="1.3" transform="scale(.26458333)"/></svg>

<?xml version="1.0" encoding="UTF-8" standalone="no"?>
<!-- Created with Inkscape (http://www.inkscape.org/) -->

<svg
     xmlns:dc="http://purl.org/dc/elements/1.1/"
     xmlns:cc="http://creativecommons.org/ns#"
     xmlns:rdf="http://www.w3.org/1999/02/22-rdf-syntax-ns#"
     xmlns:svg="http://www.w3.org/2000/svg"
     xmlns="http://www.w3.org/2000/svg"
     xmlns:sodipodi="http://sodipodi.sourceforge.net/DTD/sodipodi-0.dtd"
     xmlns:inkscape="http://www.inkscape.org/namespaces/inkscape"
     width="16"
     height="16"
     viewBox="0 0 4.2333333 4.2333333"
     version="1.1"
     id="svg8"
     inkscape:version="0.92+devel (fa9b7f7a5b, 2017-07-19, custom)"
     sodipodi:docname="glyph-ms-path.svg">
    <defs
         id="defs2" />
    <sodipodi:namedview
         id="base"
         pagecolor="#002466"
         bordercolor="#ffffff"
         borderopacity="0.38039216"
         inkscape:pageopacity="1"
         inkscape:pageshadow="2"
         inkscape:zoom="26.8125"
         inkscape:cx="8"
         inkscape:cy="8"
         inkscape:document-units="px"
         inkscape:current-layer="svg8"
         inkscape:document-rotation="0"
         showgrid="false"
         inkscape:showpageshadow="false"
         borderlayer="true"
         inkscape:window-width="1920"
         inkscape:window-height="1051"
         inkscape:window-x="0"
         inkscape:window-y="0"
         inkscape:window-maximized="1"
         units="px"
         inkscape:snap-grids="false"
         inkscape:snap-to-guides="false"
         inkscape:snap-intersection-paths="true"
         inkscape:object-paths="true"
         inkscape:snap-page="true" />
    <metadata
         id="metadata5">
        <rdf:RDF>
            <cc:Work
                 rdf:about="">
                <dc:format>image/svg+xml</dc:format>
                <dc:type
                     rdf:resource="http://purl.org/dc/dcmitype/StillImage" />
                <dc:title />
            </cc:Work>
        </rdf:RDF>
    </metadata>
    <path
         style="fill:#d0d0d0;stroke-width:1.29999995"
         d="m 8.5410156,-0.01757813 c -2.8521789,0.50797305 -5.70669,0.99358845 -8.55859373,1.49218753 0,4.3386588 -0.0019241,8.6790856 0,13.0195316 2.83717003,0.496813 5.67825773,0.971072 8.50976563,1.488281 h 1.1621094 v -2.445313 l 0.8671871,1.169922 1.779297,-2.402343 H 11.353516 V 6.4296875 h 1.464843 V 4.7324219 H 9.6542969 V -0.01757813 Z M 14.220703,1.2695312 12.441406,3.671875 h 0.976563 v 5.1777344 h -1.464844 v 1.6972656 h 1.464844 1.699219 V 8.8496094 3.671875 H 16 Z M 4.5742188,4.6775296 4.4902344,10.990439 c -0.3605896,-0.03169 -0.7212686,-0.06183 -1.0820313,-0.09147 -0.01629,-1.9450798 -0.019691,-4.1919407 0.00195,-6.1368792 0.4935337,0.023667 0.6394278,-0.073393 1.1640626,-0.084563 z"
         transform="scale(0.26458333)"
         id="path855"
         inkscape:label="#"
         inkscape:connector-curvature="0"
         sodipodi:nodetypes="cccccccccccccccccccccccccccccccc" />
</svg>
